Hatter-kde/actions/24/edit-table-insert-column-right.svg

<?xml version="1.0" encoding="UTF-8"?>
<svg viewBox="0 0 24 24" xmlns="http://www.w3.org/2000/svg">
 <defs id="defs3051">
  <style id="current-color-scheme" type="text/css">.ColorScheme-Text {
        color:#363636;
      }
      .ColorScheme-Highlight {
        color:#3daee9;
      }</style>
 </defs>
 <path class="ColorScheme-Text" d="m4 4v1 15h1 9v-1h-4v-2h4v-1h-4v-2h4 6v-1h-6-4v-2h4v-1h-4v-2h4v-1h-4v-1-1h4 6v-1h-6-10zm1 1h4v1 1h-1-3v-2zm0 3h3 1v2h-4v-2zm0 3h4v2h-4v-2zm0 3h4v2h-1-3v-2zm10 1v5l5-2.5-5-2.5zm-10 2h3 1v1.0996 0.90039h-4v-2z" fill="currentColor"/>
 <path class="ColorScheme-Highlight" d="m14 4v1 5.293 2.707 1h6v-1-8-1h-6zm1 1h4v0.29297l-4 4v-4.293zm4 1.707v2.5859l-3.707 3.707h-0.29297v-2.293l4-4zm0 4v2.293h-2.293l2.293-2.293z" fill="currentColor"/>
</svg>

<svg xmlns="http://www.w3.org/2000/svg" viewBox="0 0 24 24">
  <defs id="defs3051">
    <style type="text/css" id="current-color-scheme">
      .ColorScheme-Text {
        color:#363636;
      }
      .ColorScheme-Highlight {
        color:#3daee9;
      }
      </style>
  </defs>
 <path 
     style="fill:currentColor;fill-opacity:1;stroke:none" 
     d="M 4 4 L 4 5 L 4 20 L 5 20 L 14 20 L 14 19 L 10 19 L 10 17 L 14 17 L 14 16 L 10 16 L 10 14 L 14 14 L 20 14 L 20 13 L 14 13 L 10 13 L 10 11 L 14 11 L 14 10 L 10 10 L 10 8 L 14 8 L 14 7 L 10 7 L 10 6 L 10 5 L 14 5 L 20 5 L 20 4 L 14 4 L 4 4 z M 5 5 L 9 5 L 9 6 L 9 7 L 8 7 L 5 7 L 5 5 z M 5 8 L 8 8 L 9 8 L 9 10 L 5 10 L 5 8 z M 5 11 L 9 11 L 9 13 L 5 13 L 5 11 z M 5 14 L 9 14 L 9 16 L 8 16 L 5 16 L 5 14 z M 15 15 L 15 20 L 20 17.5 L 15 15 z M 5 17 L 8 17 L 9 17 L 9 18.099609 L 9 19 L 5 19 L 5 17 z "
     class="ColorScheme-Text"
     />
 <path 
     style="fill:currentColor;fill-opacity:1;stroke:none" 
     d="M 14 4 L 14 5 L 14 10.292969 L 14 13 L 14 14 L 20 14 L 20 13 L 20 5 L 20 4 L 14 4 z M 15 5 L 19 5 L 19 5.2929688 L 15 9.2929688 L 15 5 z M 19 6.7070312 L 19 9.2929688 L 15.292969 13 L 15 13 L 15 10.707031 L 19 6.7070312 z M 19 10.707031 L 19 13 L 16.707031 13 L 19 10.707031 z "
     class="ColorScheme-Highlight"
     />
</svg>
